packages/foundations/assets/icons/functional/images/transportation/bike_trailer_28.svg

<svg width="28" height="28" viewBox="0 0 28 28" fill="none" xmlns="http://www.w3.org/2000/svg">
<g clip-path="url(#clip0_187_840)">
<path fill-rule="evenodd" clip-rule="evenodd" d="M8.78773 15.7092C10.4791 15.7092 11.8502 17.0803 11.8502 18.7717C11.8502 20.4631 10.4791 21.8342 8.78773 21.8342C7.09636 21.8342 5.72523 20.4631 5.72523 18.7717C5.72523 17.0803 7.09636 15.7092 8.78773 15.7092ZM8.78773 17.4592C8.06285 17.4592 7.47523 18.0468 7.47523 18.7717C7.47523 19.4966 8.06285 20.0842 8.78773 20.0842C9.5126 20.0842 10.1002 19.4966 10.1002 18.7717C10.1002 18.0468 9.5126 17.4592 8.78773 17.4592ZM3.16998 9.44639C3.75171 7.18985 6.0151 5.77285 8.31625 6.26248C8.81988 6.3582 9.84979 6.75253 11.406 7.44546C12.8078 8.05803 14.1075 8.88354 15.2588 9.89346C16.9896 11.4117 18.4144 12.8768 19.5333 14.2914C19.6792 14.4758 19.7437 14.7098 19.7156 14.94C19.6876 15.1703 19.1645 17.2889 19.0395 17.4919C18.4237 18.4918 17.6489 19.1959 16.877 19.2026C16.3625 19.207 15.382 19.2073 13.9357 19.2033C13.5148 19.2026 13.1627 18.7829 13.1627 18.3342C13.1627 17.8855 13.5301 17.4651 13.9357 17.4651C15.6234 17.4651 16.5298 17.4615 16.6549 17.4542C16.877 17.4678 17.1346 17.1887 17.3729 16.8457C17.5318 16.617 17.7047 16.0163 17.8915 15.0433C16.5438 13.4717 15.2815 12.1936 14.1048 11.209C13.0699 10.3431 11.9611 9.60159 10.7359 9.06247C9.51069 8.52335 8.27877 8.02959 7.80025 7.94642C6.48639 7.74546 5.22603 8.56358 4.87467 9.84544L3.97554 14.0511C3.97554 15.61 3.97544 16.4454 3.97522 16.5573C3.97489 16.7251 4.0835 16.8031 4.18744 16.8291C4.65626 16.9463 4.9413 17.4214 4.82409 17.8902C4.70689 18.359 4.23182 18.644 3.763 18.5268C2.90945 18.3135 2.22522 17.526 2.22522 16.5862C2.22522 15.6111 2.22522 14.7355 2.22522 13.9592C2.22522 13.8192 2.54014 12.3149 3.16998 9.44639ZM24.8998 15.9808C25.383 15.9808 25.7748 16.3725 25.7748 16.8558C25.7748 17.339 25.383 17.7308 24.8998 17.7308C24.6168 17.7308 24.337 17.785 24.0753 17.89L22.4845 18.6671C22.1836 18.8154 21.8007 18.9223 21.5244 18.93C21.3402 18.9351 21.1277 18.9377 20.8869 18.9377C20.4036 18.9377 20.0119 18.5459 20.0119 18.0627C20.0119 17.6139 20.3754 17.1877 20.8869 17.1936L21.3237 17.1877C21.4244 17.1877 21.524 17.1703 21.6183 17.1366C21.6812 17.1141 22.1906 16.8651 23.1467 16.3895C23.692 16.1206 24.2918 15.9808 24.8998 15.9808ZM6.41897 10.5452C6.61886 9.90714 7.28456 9.48519 7.95204 9.62631C9.03556 10.0709 9.93639 10.4626 10.6545 10.8012C11.7318 11.3091 12.7148 11.9965 13.5614 12.8341C13.8789 13.1547 14.1275 13.4183 14.307 13.6249C14.5763 13.9349 14.5255 14.4711 14.2011 14.7774C13.8768 15.0836 13.38 15.0936 13.0445 14.817C12.951 14.7136 12.6989 14.4535 12.2881 14.0365C11.6719 13.411 10.8207 12.8217 9.96199 12.4096L7.98943 11.5512L7.60414 13.3422C7.51808 13.7013 7.08374 14.0272 6.59394 13.9186C6.10414 13.81 5.84482 13.3422 5.90351 12.9826C5.95345 12.7098 6.12527 11.8973 6.41897 10.5452Z" fill="#1A1C1F"/>
</g>
<defs>
<clipPath id="clip0_187_840">
<rect width="28" height="28" fill="white"/>
</clipPath>
</defs>
</svg>

<svg xmlns="http://www.w3.org/2000/svg" width="28" height="28" fill="none"><g clip-path="url(#a)"><path fill="#1A1C1F" fill-rule="evenodd" d="M8.788 15.71a3.062 3.062 0 1 1 0 6.124 3.062 3.062 0 0 1 0-6.125m0 1.75a1.312 1.312 0 1 0 0 2.624 1.312 1.312 0 0 0 0-2.625M3.17 9.445a4.375 4.375 0 0 1 5.146-3.184q.756.144 3.09 1.183a14.9 14.9 0 0 1 3.853 2.448q2.595 2.278 4.274 4.398c.146.185.21.419.183.649-.028.23-.552 2.349-.677 2.552-.615 1-1.39 1.704-2.162 1.71q-.771.007-2.941.001c-.421 0-.773-.42-.773-.869 0-.448.367-.869.773-.869q2.531 0 2.719-.01c.222.013.48-.266.718-.61q.239-.342.518-1.802-2.021-2.357-3.786-3.834c-1.035-.866-2.144-1.607-3.37-2.147C9.512 8.523 8.28 8.03 7.8 7.946a2.625 2.625 0 0 0-2.925 1.9l-.9 4.205v2.506c0 .168.108.246.212.272a.875.875 0 0 1-.424 1.698c-.854-.213-1.538-1.001-1.538-1.94v-2.628q0-.21.945-4.513m21.73 6.535a.875.875 0 1 1 0 1.75c-.283 0-.563.054-.825.159l-1.59.777c-.301.148-.684.255-.96.263q-.277.008-.638.008a.875.875 0 0 1-.875-.875.87.87 0 0 1 .875-.87l.437-.005q.152 0 .294-.051.095-.035 1.529-.747a4 4 0 0 1 1.753-.41M6.419 10.545c.2-.638.866-1.06 1.533-.919q1.625.668 2.703 1.175a10.5 10.5 0 0 1 2.906 2.033q.476.48.746.79c.27.31.218.847-.106 1.153a.875.875 0 0 1-1.157.04 37 37 0 0 0-.756-.78c-.616-.626-1.467-1.215-2.326-1.627l-1.973-.859-.385 1.791c-.086.36-.52.685-1.01.577s-.75-.577-.69-.936q.074-.41.515-2.438" clip-rule="evenodd"/></g><defs><clipPath id="a"><path fill="#fff" d="M0 0h28v28H0z"/></clipPath></defs></svg>
